public/icons/icon-bowl.svg

<svg width="25" height="25" viewBox="0 0 25 25" fill="none" xmlns="http://www.w3.org/2000/svg">
<path fill-rule="evenodd" clip-rule="evenodd" d="M20.5507 3.6718C20.1602 3.28128 19.527 3.28128 19.1365 3.6718L13.7726 9.03574H2.00391V11.0357H2.01233C2.22954 16.3665 6.61982 20.6215 12.0039 20.6215C17.388 20.6215 21.7783 16.3665 21.9955 11.0357H22.0039V9.03574H16.601L20.5507 5.08601C20.9413 4.69549 20.9413 4.06232 20.5507 3.6718ZM14.1801 11.0357C14.1845 11.0358 14.189 11.0358 14.1935 11.0357H19.9934C19.7778 15.2615 16.2832 18.6215 12.0039 18.6215C7.72457 18.6215 4.23 15.2615 4.01445 11.0357H14.1801Z" fill="#273D63"/>
</svg>

<svg viewBox="0 0 25 25" fill="none" xmlns="http://www.w3.org/2000/svg"><path fill-rule="evenodd" clip-rule="evenodd" d="M20.55 3.672a1 1 0 0 0-1.413 0l-5.364 5.364H2.003v2h.01c.217 5.33 4.607 9.586 9.99 9.586 5.385 0 9.775-4.256 9.992-9.586h.009v-2H16.6l3.95-3.95a1 1 0 0 0 0-1.414zm-6.37 7.364a.3.3 0 0 0 .014 0h5.8a8 8 0 0 1-15.98 0H14.18z" fill="#273D63"/></svg>
